vsi/file-submodule_light.svg

<svg viewBox="0 0 16 16" fill="none" xmlns="http://www.w3.org/2000/svg" height="1em" width="1em">
  <path fill-rule="evenodd" clip-rule="evenodd" d="M2.00024 11H3.00024V6.99H2.00024V11ZM3.00024 5.99V5.5L3.50024 5H7.93024L8.36024 5.25L8.79024 6H13.0002H14.5002L15.0002 6.5V14.5L14.5002 15H3.50024L3.00024 14.5V12H1.50024L1.00024 11.5V2.5L1.50024 2H5.92024L6.36024 2.25L6.79024 3H12.5002L13.0002 3.5V6L12.0002 5.97V4H6.50024L6.07024 3.75L5.64024 3H2.00024V5.99H3.00024ZM8.07024 6.75L7.64024 6H4.00024V9H7.15024L7.56024 8.26L8.00024 8H14.0002V7H8.50024L8.07024 6.75ZM7.45024 10H4.00024V14H14.0002V9H8.30024L7.89024 9.74L7.45024 10Z" fill="#424242"/>
</svg>

<svg viewBox="0 0 16 16" fill="none" xmlns="http://www.w3.org/2000/svg" height="1em" width="1em">
  <path fill-rule="evenodd" clip-rule="evenodd" d="M2 11h1V6.99H2V11Zm1-5.01V5.5l.5-.5h4.43l.43.25.43.75h5.71l.5.5v8l-.5.5h-11l-.5-.5V12H1.5l-.5-.5v-9l.5-.5h4.42l.44.25.43.75h5.71l.5.5V6l-1-.03V4H6.5l-.43-.25L5.64 3H2v2.99h1Zm5.07.76L7.64 6H4v3h3.15l.41-.74L8 8h6V7H8.5l-.43-.25ZM7.45 10H4v4h10V9H8.3l-.41.74-.44.26Z" fill="#424242"/>
</svg>
